img/logo-web.svg

<svg width="111" height="35" viewBox="0 0 111 35" fill="none" xmlns="http://www.w3.org/2000/svg">
<path d="M52.0622 22.36C52.0622 21.72 51.8222 21.2 51.3422 20.8C50.8822 20.4 50.2922 20.04 49.5722 19.72C48.8722 19.38 48.1022 19.04 47.2622 18.7C46.4422 18.34 45.6722 17.91 44.9522 17.41C44.2522 16.89 43.6622 16.25 43.1822 15.49C42.7222 14.73 42.4922 13.76 42.4922 12.58C42.4922 11.56 42.6622 10.68 43.0022 9.93999C43.3422 9.17999 43.8222 8.54999 44.4422 8.04999C45.0822 7.54999 45.8322 7.17999 46.6922 6.93999C47.5522 6.69999 48.5122 6.57999 49.5722 6.57999C50.7922 6.57999 51.9422 6.68999 53.0222 6.90999C54.1022 7.10999 54.9922 7.40999 55.6922 7.80999L54.4022 11.26C53.9622 10.98 53.3022 10.73 52.4222 10.51C51.5422 10.27 50.5922 10.15 49.5722 10.15C48.6122 10.15 47.8722 10.34 47.3522 10.72C46.8522 11.1 46.6022 11.61 46.6022 12.25C46.6022 12.85 46.8322 13.35 47.2922 13.75C47.7722 14.15 48.3622 14.52 49.0622 14.86C49.7822 15.2 50.5522 15.55 51.3722 15.91C52.2122 16.27 52.9822 16.71 53.6822 17.23C54.4022 17.73 54.9922 18.36 55.4522 19.12C55.9322 19.86 56.1722 20.79 56.1722 21.91C56.1722 23.03 55.9822 24 55.6022 24.82C55.2422 25.62 54.7222 26.29 54.0422 26.83C53.3822 27.37 52.5722 27.77 51.6122 28.03C50.6722 28.29 49.6322 28.42 48.4922 28.42C46.9922 28.42 45.6722 28.28 44.5322 28C43.3922 27.72 42.5522 27.44 42.0122 27.16L43.3322 23.65C43.5522 23.77 43.8322 23.9 44.1722 24.04C44.5322 24.18 44.9322 24.31 45.3722 24.43C45.8122 24.55 46.2722 24.65 46.7522 24.73C47.2522 24.81 47.7622 24.85 48.2822 24.85C49.5022 24.85 50.4322 24.65 51.0722 24.25C51.7322 23.83 52.0622 23.2 52.0622 22.36Z" fill="#504A62"/>
<path d="M57.2604 13H59.3304V10.18L63.2304 9.06999V13H66.8904V16.3H63.2304V22.06C63.2304 23.1 63.3304 23.85 63.5304 24.31C63.7504 24.75 64.1504 24.97 64.7304 24.97C65.1304 24.97 65.4704 24.93 65.7504 24.85C66.0504 24.77 66.3804 24.65 66.7404 24.49L67.4304 27.49C66.8904 27.75 66.2604 27.97 65.5404 28.15C64.8204 28.33 64.0904 28.42 63.3504 28.42C61.9704 28.42 60.9504 28.07 60.2904 27.37C59.6504 26.65 59.3304 25.48 59.3304 23.86V16.3H57.2604V13Z" fill="#504A62"/>
<path d="M69.1894 13.87C69.9894 13.51 70.9394 13.23 72.0394 13.03C73.1394 12.81 74.2894 12.7 75.4894 12.7C76.5294 12.7 77.3994 12.83 78.0994 13.09C78.7994 13.33 79.3494 13.68 79.7494 14.14C80.1694 14.6 80.4594 15.15 80.6194 15.79C80.7994 16.43 80.8894 17.15 80.8894 17.95C80.8894 18.83 80.8594 19.72 80.7994 20.62C80.7394 21.5 80.6994 22.37 80.6794 23.23C80.6794 24.09 80.7094 24.93 80.7694 25.75C80.8294 26.55 80.9794 27.31 81.2194 28.03H78.0394L77.4094 25.96H77.2594C76.8594 26.58 76.2994 27.12 75.5794 27.58C74.8794 28.02 73.9694 28.24 72.8494 28.24C72.1494 28.24 71.5194 28.14 70.9594 27.94C70.3994 27.72 69.9194 27.42 69.5194 27.04C69.1194 26.64 68.8094 26.18 68.5894 25.66C68.3694 25.12 68.2594 24.52 68.2594 23.86C68.2594 22.94 68.4594 22.17 68.8594 21.55C69.2794 20.91 69.8694 20.4 70.6294 20.02C71.4094 19.62 72.3294 19.35 73.3894 19.21C74.4694 19.05 75.6694 19 76.9894 19.06C77.1294 17.94 77.0494 17.14 76.7494 16.66C76.4494 16.16 75.7794 15.91 74.7394 15.91C73.9594 15.91 73.1294 15.99 72.2494 16.15C71.3894 16.31 70.6794 16.52 70.1194 16.78L69.1894 13.87ZM74.1394 25.03C74.9194 25.03 75.5394 24.86 75.9994 24.52C76.4594 24.16 76.7994 23.78 77.0194 23.38V21.43C76.3994 21.37 75.7994 21.36 75.2194 21.4C74.6594 21.44 74.1594 21.53 73.7194 21.67C73.2794 21.81 72.9294 22.01 72.6694 22.27C72.4094 22.53 72.2794 22.86 72.2794 23.26C72.2794 23.82 72.4394 24.26 72.7594 24.58C73.0994 24.88 73.5594 25.03 74.1394 25.03Z" fill="#504A62"/>
<path d="M94.7822 27.07C94.1822 27.51 93.4522 27.84 92.5922 28.06C91.7522 28.3 90.8822 28.42 89.9822 28.42C88.7822 28.42 87.7622 28.23 86.9222 27.85C86.1022 27.47 85.4322 26.94 84.9122 26.26C84.3922 25.56 84.0122 24.72 83.7722 23.74C83.5522 22.76 83.4422 21.68 83.4422 20.5C83.4422 17.96 84.0122 16.01 85.1522 14.65C86.2922 13.27 87.9522 12.58 90.1322 12.58C91.2322 12.58 92.1122 12.67 92.7722 12.85C93.4522 13.03 94.0622 13.26 94.6022 13.54L93.6722 16.72C93.2122 16.5 92.7522 16.33 92.2922 16.21C91.8522 16.09 91.3422 16.03 90.7622 16.03C89.6822 16.03 88.8622 16.39 88.3022 17.11C87.7422 17.81 87.4622 18.94 87.4622 20.5C87.4622 21.14 87.5322 21.73 87.6722 22.27C87.8122 22.81 88.0222 23.28 88.3022 23.68C88.5822 24.08 88.9422 24.4 89.3822 24.64C89.8422 24.86 90.3722 24.97 90.9722 24.97C91.6322 24.97 92.1922 24.89 92.6522 24.73C93.1122 24.55 93.5222 24.34 93.8822 24.1L94.7822 27.07Z" fill="#504A62"/>
<path d="M102.091 21.79H101.041V28H97.1407V6.99999H101.041V19.39L101.941 18.97L105.361 13H109.651L106.051 18.7L104.521 19.84L106.171 21.01L110.221 28H105.751L102.091 21.79Z" fill="#504A62"/>
<rect opacity="0.5" x="30.9897" y="15.4948" width="21.913" height="21.913" rx="5" transform="rotate(135 30.9897 15.4948)" fill="#FFBE4D"/>
<rect opacity="0.5" x="34.0122" y="18.5173" width="21.913" height="21.913" rx="5" transform="rotate(135 34.0122 18.5173)" fill="#E89C38"/>
</svg>

<svg width="111" height="35" fill="none" xmlns="http://www.w3.org/2000/svg"><path d="M52.062 22.36c0-.64-.24-1.16-.72-1.56-.46-.4-1.05-.76-1.77-1.08-.7-.34-1.47-.68-2.31-1.02-.82-.36-1.59-.79-2.31-1.29-.7-.52-1.29-1.16-1.77-1.92-.46-.76-.69-1.73-.69-2.91 0-1.02.17-1.9.51-2.64.34-.76.82-1.39 1.44-1.89.64-.5 1.39-.87 2.25-1.11.86-.24 1.82-.36 2.88-.36 1.22 0 2.37.11 3.45.33 1.08.2 1.97.5 2.67.9l-1.29 3.45c-.44-.28-1.1-.53-1.98-.75-.88-.24-1.83-.36-2.85-.36-.96 0-1.7.19-2.22.57-.5.38-.75.89-.75 1.53 0 .6.23 1.1.69 1.5.48.4 1.07.77 1.77 1.11.72.34 1.49.69 2.31 1.05.84.36 1.61.8 2.31 1.32.72.5 1.31 1.13 1.77 1.89.48.74.72 1.67.72 2.79s-.19 2.09-.57 2.91c-.36.8-.88 1.47-1.56 2.01-.66.54-1.47.94-2.43 1.2-.94.26-1.98.39-3.12.39-1.5 0-2.82-.14-3.96-.42-1.14-.28-1.98-.56-2.52-.84l1.32-3.51c.22.12.5.25.84.39.36.14.76.27 1.2.39.44.12.9.22 1.38.3.5.08 1.01.12 1.53.12 1.22 0 2.15-.2 2.79-.6.66-.42.99-1.05.99-1.89zM57.26 13h2.07v-2.82l3.9-1.11V13h3.66v3.3h-3.66v5.76c0 1.04.1 1.79.3 2.25.22.44.62.66 1.2.66.4 0 .74-.04 1.02-.12.3-.08.63-.2.99-.36l.69 3c-.54.26-1.17.48-1.89.66-.72.18-1.45.27-2.19.27-1.38 0-2.4-.35-3.06-1.05-.64-.72-.96-1.89-.96-3.51V16.3h-2.07V13zM69.19 13.87c.8-.36 1.75-.64 2.85-.84 1.1-.22 2.25-.33 3.45-.33 1.04 0 1.91.13 2.61.39.7.24 1.25.59 1.65 1.05.42.46.71 1.01.87 1.65.18.64.27 1.36.27 2.16 0 .88-.03 1.77-.09 2.67-.06.88-.1 1.75-.12 2.61 0 .86.03 1.7.09 2.52.06.8.21 1.56.45 2.28h-3.18l-.63-2.07h-.15c-.4.62-.96 1.16-1.68 1.62-.7.44-1.61.66-2.73.66-.7 0-1.33-.1-1.89-.3-.56-.22-1.04-.52-1.44-.9-.4-.4-.71-.86-.93-1.38a4.73 4.73 0 0 1-.33-1.8c0-.92.2-1.69.6-2.31.42-.64 1.01-1.15 1.77-1.53.78-.4 1.7-.67 2.76-.81 1.08-.16 2.28-.21 3.6-.15.14-1.12.06-1.92-.24-2.4-.3-.5-.97-.75-2.01-.75-.78 0-1.61.08-2.49.24-.86.16-1.57.37-2.13.63l-.93-2.91zm4.95 11.16c.78 0 1.4-.17 1.86-.51.46-.36.8-.74 1.02-1.14v-1.95c-.62-.06-1.22-.07-1.8-.03-.56.04-1.06.13-1.5.27-.44.14-.79.34-1.05.6-.26.26-.39.59-.39.99 0 .56.16 1 .48 1.32.34.3.8.45 1.38.45zM94.782 27.07c-.6.44-1.33.77-2.19.99-.84.24-1.71.36-2.61.36-1.2 0-2.22-.19-3.06-.57-.82-.38-1.49-.91-2.01-1.59-.52-.7-.9-1.54-1.14-2.52-.22-.98-.33-2.06-.33-3.24 0-2.54.57-4.49 1.71-5.85 1.14-1.38 2.8-2.07 4.98-2.07 1.1 0 1.98.09 2.64.27.68.18 1.29.41 1.83.69l-.93 3.18c-.46-.22-.92-.39-1.38-.51a5.84 5.84 0 0 0-1.53-.18c-1.08 0-1.9.36-2.46 1.08-.56.7-.84 1.83-.84 3.39 0 .64.07 1.23.21 1.77.14.54.35 1.01.63 1.41.28.4.64.72 1.08.96.46.22.99.33 1.59.33.66 0 1.22-.08 1.68-.24.46-.18.87-.39 1.23-.63l.9 2.97zM102.091 21.79h-1.05V28h-3.9V7h3.9v12.39l.9-.42 3.42-5.97h4.29l-3.6 5.7-1.53 1.14 1.65 1.17 4.05 6.99h-4.47l-3.66-6.21z" fill="#504A62"/><rect opacity=".5" x="30.99" y="15.495" width="21.913" height="21.913" rx="5" transform="rotate(135 30.99 15.495)" fill="#FFBE4D"/><rect opacity=".5" x="34.012" y="18.517" width="21.913" height="21.913" rx="5" transform="rotate(135 34.012 18.517)" fill="#E89C38"/></svg>
